images/icon_telegram.svg

<svg width="30" height="26" viewBox="0 0 30 26" fill="none" xmlns="http://www.w3.org/2000/svg">
<path d="M11.7712 16.9763L11.275 23.9563C11.985 23.9563 12.2925 23.6513 12.6612 23.285L15.99 20.1038L22.8875 25.155C24.1525 25.86 25.0437 25.4888 25.385 23.9913L29.9125 2.77627L29.9137 2.77502C30.315 0.905018 29.2375 0.173769 28.005 0.632519L1.39248 10.8213C-0.423772 11.5263 -0.396272 12.5388 1.08373 12.9975L7.88748 15.1138L23.6912 5.22502C24.435 4.73252 25.1112 5.00502 24.555 5.49752L11.7712 16.9763Z" fill="#072EFC"/>
</svg>

<svg width="30" height="26" fill="none" xmlns="http://www.w3.org/2000/svg"><path d="M11.771 16.976l-.496 6.98c.71 0 1.018-.305 1.386-.671l3.329-3.181 6.897 5.051c1.265.705 2.157.334 2.498-1.164l4.527-21.215.002-.001c.401-1.87-.677-2.601-1.909-2.142L1.392 10.82c-1.816.705-1.788 1.718-.308 2.177l6.803 2.116 15.804-9.889c.744-.492 1.42-.22.864.273L11.771 16.976z" fill="#072EFC"/></svg>
